assets/i18n/b-hi-dk.svg

<?xml version="1.0" encoding="UTF-8"?>
<svg width="204px" height="24px" viewBox="0 0 204 24" version="1.1" xmlns="http://www.w3.org/2000/svg" xmlns:xlink="http://www.w3.org/1999/xlink">
    <!-- Generator: Sketch 51.3 (57544) - http://www.bohemiancoding.com/sketch -->
    <title>SwG-Hi Copy-Black</title>
    <desc>Created with Sketch.</desc>
    <defs></defs>
    <g id="SwG-Hi-Copy" stroke="none" stroke-width="1" fill="none" fill-rule="evenodd">
        <path d="M95.881,15.169 C95.881,13.743 94.892,12.777 93.466,12.777 C91.833,12.777 90.729,13.95 90.729,15.675 L90.729,22 L89.004,22 L89.004,17.791 L88.912,17.791 C88.475,18.343 87.555,19.102 85.945,19.102 C83.852,19.102 82.035,17.515 82.035,15.169 C82.035,12.386 84.404,10.868 86.888,11.19 L87.164,12.777 C85.508,12.501 83.852,13.214 83.852,15.146 C83.852,16.526 84.818,17.538 86.267,17.538 C87.9,17.538 89.004,16.365 89.004,14.64 L89.004,8.706 L80.494,8.706 L80.494,7.234 L99.216,7.234 L99.216,8.706 L90.729,8.706 L90.729,12.547 L90.821,12.547 C91.258,11.949 92.224,11.213 93.811,11.213 C95.904,11.213 97.675,12.754 97.675,15.146 C97.675,17.929 95.306,19.447 92.845,19.102 L92.569,17.515 C94.225,17.814 95.881,17.078 95.881,15.169 Z M105.495,8.706 L102.712,8.706 L102.712,22 L100.987,22 L100.987,8.706 L98.204,8.706 L98.204,7.234 L100.78,7.234 C99.86,5.118 97.077,2.197 92.845,2.197 C91.028,2.197 90.131,3.048 90.131,4.129 C90.131,4.888 90.591,5.486 91.028,5.808 L89.372,6.314 C88.935,5.969 88.337,5.256 88.337,4.06 C88.337,2.243 89.993,0.679 92.799,0.679 C97.813,0.679 101.355,4.014 102.597,7.234 L105.495,7.234 L105.495,8.706 Z M119.7665,14.226 C120.5945,14.226 121.3765,14.111 121.9515,13.927 L121.9515,8.706 L117.3975,8.706 L117.3975,13.122 C117.3975,13.398 117.3745,13.674 117.3055,13.904 C118.0415,14.111 118.9155,14.226 119.7665,14.226 Z M113.8555,15.859 L113.8095,15.928 C114.3155,16.503 114.7755,17.009 115.3965,17.837 L118.0875,21.333 L116.6845,22.253 L110.7505,14.479 L112.0615,13.444 C112.4525,13.904 113.0735,14.479 114.1545,14.479 C115.1435,14.479 115.6725,14.042 115.6725,12.984 L115.6725,8.706 L109.8305,8.706 L109.8305,7.234 L126.4825,7.234 L126.4825,8.706 L123.6995,8.706 L123.6995,22 L121.9515,22 L121.9515,15.583 C121.4225,15.698 120.7555,15.767 119.8355,15.767 C118.6855,15.767 117.4435,15.537 116.5925,15.215 C116.0865,15.675 115.3735,15.905 114.6145,15.928 C114.4305,15.928 114.0625,15.928 113.8555,15.859 Z M135.27425,12.225 L131.66325,13.099 C129.63925,13.628 128.97225,14.456 128.97225,15.744 C128.97225,17.423 130.32925,18.78 132.23825,18.757 C133.13525,18.757 133.87125,18.527 134.26225,18.182 L134.26225,15.836 L135.52725,15.376 C136.03325,15.629 136.67725,16.273 136.67725,17.262 C136.67725,18.182 136.28625,18.803 135.87225,19.171 L138.42525,22.414 L136.37825,22.92 L134.69925,19.884 C134.07825,20.183 133.27325,20.344 132.46825,20.344 C129.22525,20.344 127.20125,17.975 127.20125,15.537 C127.20125,13.536 128.39725,12.271 130.76625,11.696 L133.52625,11.006 L133.52625,8.706 L125.61425,8.706 L125.61425,7.234 L138.65525,7.234 L138.65525,8.706 L135.27425,8.706 L135.27425,12.225 Z M147.516,14.226 C148.091,14.226 148.62,14.18 149.08,14.111 C149.034,13.927 149.011,13.72 148.988,13.536 C151.104,13.076 152.323,12.317 152.323,10.891 C152.323,10.063 151.909,9.235 151.311,8.706 L145.354,8.706 L145.354,12.961 C145.354,13.306 145.308,13.628 145.239,13.904 C145.906,14.111 146.688,14.226 147.516,14.226 Z M141.812,15.675 L141.766,15.744 C142.272,16.319 142.732,16.848 143.353,17.653 L146.044,21.149 L144.641,22.069 L138.707,14.295 L140.018,13.26 C140.409,13.72 141.03,14.295 142.111,14.295 C143.1,14.295 143.629,13.858 143.629,12.8 L143.629,8.706 L137.787,8.706 L137.787,7.234 L162.466,7.234 L162.466,8.706 L159.683,8.706 L159.683,22 L157.958,22 L157.958,17.193 L157.866,17.193 C157.452,17.745 156.371,18.849 154.232,18.849 C152.139,18.849 150.391,17.699 149.54,15.652 C149.034,15.744 148.413,15.813 147.608,15.813 C146.366,15.813 145.193,15.56 144.388,15.169 C143.928,15.537 143.33,15.721 142.686,15.744 C142.456,15.744 142.065,15.744 141.812,15.675 Z M150.989,14.341 C151.173,15.583 152.185,17.262 154.485,17.262 C156.509,17.262 157.981,15.905 157.981,13.49 L157.981,8.706 L153.151,8.706 L153.151,8.798 C153.726,9.396 154.094,10.132 154.094,11.144 C154.094,12.754 152.76,13.927 150.989,14.341 Z M167.71575,21.126 L166.33575,22.161 C164.70275,20.919 163.27675,18.849 163.27675,16.112 C163.27675,13.513 165.07075,11.926 167.34775,11.926 L170.88975,11.926 L170.88975,8.706 L161.59775,8.706 L161.59775,7.234 L175.39775,7.234 L175.39775,8.706 L172.61475,8.706 L172.61475,22 L170.88975,22 L170.88975,13.49 L167.66975,13.49 C166.12875,13.49 165.07075,14.433 165.07075,16.135 C165.07075,18.435 166.26675,20.045 167.71575,21.126 Z M181.67675,8.706 L178.89375,8.706 L178.89375,22 L177.16875,22 L177.16875,8.706 L174.38575,8.706 L174.38575,7.234 L181.67675,7.234 L181.67675,8.706 Z M198.82325,12.271 L198.91525,12.271 L198.91525,8.706 L186.01225,8.706 L186.01225,7.234 L203.42325,7.234 L203.42325,8.706 L200.66325,8.706 L200.66325,22 L198.91525,22 L198.91525,13.858 C198.57025,13.513 197.85725,13.099 197.07525,13.099 C195.94825,13.099 195.16625,13.858 195.16625,15.422 L195.16625,17.607 L193.48725,17.607 L193.48725,15.422 C193.48725,13.927 192.75125,13.191 191.60125,13.191 C190.49725,13.191 189.53125,13.973 189.53125,15.813 C189.53125,17.906 190.72725,19.7 192.98125,20.919 L191.80825,22.161 C189.60025,20.965 187.73725,18.642 187.73725,15.767 C187.73725,13.053 189.55425,11.604 191.44025,11.604 C192.93525,11.604 193.92425,12.34 194.26925,13.444 L194.36125,13.444 C194.70625,12.202 195.71825,11.512 196.86825,11.512 C197.78825,11.512 198.47825,11.88 198.82325,12.271 Z M200.50225,7.326 L199.21425,7.556 L199.09925,7.464 C197.97225,6.544 196.24725,4.727 195.35025,3.692 L193.46425,1.53 L195.44225,1.07 L200.50225,7.326 Z M200.34125,3.347 C200.34125,2.565 200.91625,2.013 201.62925,2.013 C202.38825,2.013 202.94025,2.565 202.94025,3.347 C202.94025,4.037 202.38825,4.589 201.62925,4.589 C200.91625,4.589 200.34125,4.037 200.34125,3.347 Z" id="की-सदस्यता-लें" fill="#FFFFFF"></path>
        <g id="Group" fill="#FFFFFF" fill-rule="nonzero">
            <path d="M9.36714443,19 C4.27673649,19 0,14.7346939 0,9.5 C0,4.26530612 4.27673649,0 9.36714443,0 C12.185226,0 14.1896362,1.13265306 15.6979052,2.62244898 L13.92172,4.44897959 C12.8401323,3.40816327 11.3715546,2.59183673 9.36714443,2.59183673 C5.646086,2.59183673 2.73869901,5.67346939 2.73869901,9.5 C2.73869901,13.3265306 5.646086,16.4081633 9.36714443,16.4081633 C11.7783903,16.4081633 13.1477398,15.4081633 14.030871,14.5102041 C14.755237,13.7653061 15.2216097,12.7040816 15.4002205,11.244898 L9.36714443,11.244898 L9.36714443,8.64285714 L17.8610805,8.64285714 C17.9503859,9.10204082 18,9.66326531 18,10.2653061 C18,12.2142857 17.4840132,14.622449 15.8169791,16.3367347 C14.1896362,18.0714286 12.1256891,19 9.36714443,19 Z" id="Shape"></path>
            <path d="M32,13 C32,16.4557596 29.3096447,19 26,19 C22.6903553,19 20,16.4557596 20,13 C20,9.52420701 22.6903553,7 26,7 C29.3096447,7 32,9.52420701 32,13 Z M29.3705584,13 C29.3705584,10.836394 27.8071066,9.3639399 26,9.3639399 C24.1928934,9.3639399 22.6294416,10.8464107 22.6294416,13 C22.6294416,15.1335559 24.1928934,16.6360601 26,16.6360601 C27.8071066,16.6360601 29.3705584,15.1435726 29.3705584,13 Z" id="Shape"></path>
            <path d="M45,13 C45,16.4557596 42.3096447,19 39,19 C35.7005076,19 33,16.4557596 33,13 C33,9.52420701 35.6903553,7 39,7 C42.3096447,7 45,9.52420701 45,13 Z M42.3807107,13 C42.3807107,10.836394 40.8172589,9.3639399 39.0101523,9.3639399 C37.2030457,9.3639399 35.6395939,10.8464107 35.6395939,13 C35.6395939,15.1335559 37.2030457,16.6360601 39.0101523,16.6360601 C40.8172589,16.6460768 42.3807107,15.1435726 42.3807107,13 Z" id="Shape"></path>
            <path d="M57,7.3621186 L57,17.8929188 C57,22.228555 54.5013055,24 51.5430809,24 C48.7571802,24 47.0913838,22.0915371 46.45953,20.5354059 L48.6518712,19.6056419 C49.0443864,20.5647668 50.0017406,21.6902706 51.5430809,21.6902706 C53.4386423,21.6902706 54.6066144,20.4864709 54.6066144,18.2452504 L54.6066144,17.4035694 L54.5204526,17.4035694 C53.9556136,18.1180196 52.8642298,18.7345999 51.4952132,18.7345999 C48.6231506,18.7345999 46,16.1801957 46,12.8917674 C46,9.58376511 48.6327241,7 51.4952132,7 C52.8642298,7 53.9556136,7.6263673 54.5204526,8.31145653 L54.6066144,8.31145653 L54.6066144,7.3621186 L57,7.3621186 Z M54.7789382,12.9015544 C54.7789382,10.8364997 53.4290688,9.31951641 51.7154047,9.31951641 C49.97302,9.31951641 48.5178416,10.8267127 48.5178416,12.9015544 C48.5178416,14.9470351 49.97302,16.4346575 51.7154047,16.4346575 C53.4290688,16.4346575 54.7789382,14.9470351 54.7789382,12.9015544 Z" id="Shape"></path>
            <polygon id="Shape" points="63 1 63 19 60 19 60 1"></polygon>
            <path d="M72.8441203,14.9732888 L74.8896992,16.3355593 C74.2278943,17.3171953 72.633546,19 69.8760255,19 C66.4567001,19 64,16.3656093 64,13 C64,9.43405676 66.4867821,7 69.5852325,7 C72.7037375,7 74.2278943,9.47412354 74.7292616,10.8163606 L75,11.4974958 L66.9680948,14.8230384 C67.579763,16.0250417 68.5423883,16.6460768 69.8860529,16.6460768 C71.2297174,16.6460768 72.1622607,15.9749583 72.8441203,14.9732888 Z M66.5369189,12.8096828 L71.911577,10.5859766 C71.6107566,9.83472454 70.72835,9.31385643 69.6754786,9.31385643 C68.331814,9.31385643 66.4667274,10.4958264 66.5369189,12.8096828 Z" id="Shape"></path>
        </g>
    </g>
</svg>

<svg width="204" height="24" viewBox="0 0 204 24" xmlns="http://www.w3.org/2000/svg"><title>SwG-Hi-Black</title><desc>Created with Sketch.</desc><g fill="none"><path d="M95.881 15.169c0-1.426-.989-2.392-2.415-2.392-1.633 0-2.737 1.173-2.737 2.898v6.325h-1.725v-4.209h-.092c-.437.552-1.357 1.311-2.967 1.311-2.093 0-3.91-1.587-3.91-3.933 0-2.783 2.369-4.301 4.853-3.979l.276 1.587c-1.656-.276-3.312.437-3.312 2.369 0 1.38.966 2.392 2.415 2.392 1.633 0 2.737-1.173 2.737-2.898v-5.934h-8.51v-1.472h18.722v1.472h-8.487v3.841h.092c.437-.598 1.403-1.334 2.99-1.334 2.093 0 3.864 1.541 3.864 3.933 0 2.783-2.369 4.301-4.83 3.956l-.276-1.587c1.656.299 3.312-.437 3.312-2.346zm9.614-6.463h-2.783v13.294h-1.725v-13.294h-2.783v-1.472h2.576c-.92-2.116-3.703-5.037-7.935-5.037-1.817 0-2.714.851-2.714 1.932 0 .759.46 1.357.897 1.679l-1.656.506c-.437-.345-1.035-1.058-1.035-2.254 0-1.817 1.656-3.381 4.462-3.381 5.014 0 8.556 3.335 9.798 6.555h2.898v1.472zm14.271 5.52c.828 0 1.61-.115 2.185-.299v-5.221h-4.554v4.416c0 .276-.023.552-.092.782.736.207 1.61.322 2.461.322zm-5.911 1.633l-.046.069c.506.575.966 1.081 1.587 1.909l2.691 3.496-1.403.92-5.934-7.774 1.311-1.035c.391.46 1.012 1.035 2.093 1.035.989 0 1.518-.437 1.518-1.495v-4.278h-5.842v-1.472h16.652v1.472h-2.783v13.294h-1.748v-6.417c-.529.115-1.196.184-2.116.184-1.15 0-2.392-.23-3.243-.552-.506.46-1.219.69-1.978.713-.184 0-.552 0-.759-.069zm21.419-3.634l-3.611.874c-2.024.529-2.691 1.357-2.691 2.645 0 1.679 1.357 3.036 3.266 3.013.897 0 1.633-.23 2.024-.575v-2.346l1.265-.46c.506.253 1.15.897 1.15 1.886 0 .92-.391 1.541-.805 1.909l2.553 3.243-2.047.506-1.679-3.036c-.621.299-1.426.46-2.231.46-3.243 0-5.267-2.369-5.267-4.807 0-2.001 1.196-3.266 3.565-3.841l2.76-.69v-2.3h-7.912v-1.472h13.041v1.472h-3.381v3.519zm12.242 2.001c.575 0 1.104-.046 1.564-.115-.046-.184-.069-.391-.092-.575 2.116-.46 3.335-1.219 3.335-2.645 0-.828-.414-1.656-1.012-2.185h-5.957v4.255c0 .345-.046.667-.115.943.667.207 1.449.322 2.277.322zm-5.704 1.449l-.046.069c.506.575.966 1.104 1.587 1.909l2.691 3.496-1.403.92-5.934-7.774 1.311-1.035c.391.46 1.012 1.035 2.093 1.035.989 0 1.518-.437 1.518-1.495v-4.094h-5.842v-1.472h24.679v1.472h-2.783v13.294h-1.725v-4.807h-.092c-.414.552-1.495 1.656-3.634 1.656-2.093 0-3.841-1.15-4.692-3.197-.506.092-1.127.161-1.932.161-1.242 0-2.415-.253-3.22-.644-.46.368-1.058.552-1.702.575-.23 0-.621 0-.874-.069zm9.177-1.334c.184 1.242 1.196 2.921 3.496 2.921 2.024 0 3.496-1.357 3.496-3.772v-4.784h-4.83v.092c.575.598.943 1.334.943 2.346 0 1.61-1.334 2.783-3.105 3.197zm16.727 6.785l-1.38 1.035c-1.633-1.242-3.059-3.312-3.059-6.049 0-2.599 1.794-4.186 4.071-4.186h3.542v-3.22h-9.292v-1.472h13.8v1.472h-2.783v13.294h-1.725v-8.51h-3.22c-1.541 0-2.599.943-2.599 2.645 0 2.3 1.196 3.91 2.645 4.991zm13.961-12.42h-2.783v13.294h-1.725v-13.294h-2.783v-1.472h7.291v1.472zm17.147 3.565h.092v-3.565h-12.903v-1.472h17.411v1.472h-2.76v13.294h-1.748v-8.142c-.345-.345-1.058-.759-1.84-.759-1.127 0-1.909.759-1.909 2.323v2.185h-1.679v-2.185c0-1.495-.736-2.231-1.886-2.231-1.104 0-2.07.782-2.07 2.622 0 2.093 1.196 3.887 3.45 5.106l-1.173 1.242c-2.208-1.196-4.071-3.519-4.071-6.394 0-2.714 1.817-4.163 3.703-4.163 1.495 0 2.484.736 2.829 1.84h.092c.345-1.242 1.357-1.932 2.507-1.932.92 0 1.61.368 1.955.759zm1.679-4.945l-1.288.23-.115-.092c-1.127-.92-2.852-2.737-3.749-3.772l-1.886-2.162 1.978-.46 5.06 6.256zm-.161-3.979c0-.782.575-1.334 1.288-1.334.759 0 1.311.552 1.311 1.334 0 .69-.552 1.242-1.311 1.242-.713 0-1.288-.552-1.288-1.242z" fill="#fff"/><g fill-rule="nonzero"><path d="M9.367 19c-5.09 0-9.367-4.265-9.367-9.5s4.277-9.5 9.367-9.5c2.818 0 4.822 1.133 6.331 2.622l-1.776 1.827c-1.082-1.041-2.55-1.857-4.555-1.857-3.721 0-6.628 3.082-6.628 6.908 0 3.827 2.907 6.908 6.628 6.908 2.411 0 3.781-1 4.664-1.898.724-.745 1.191-1.806 1.369-3.265h-6.033v-2.602h8.494c.089.459.139 1.02.139 1.622 0 1.949-.516 4.357-2.183 6.071-1.627 1.735-3.691 2.663-6.45 2.663z" id="Shape" fill="#4285F4"/><path d="M32 13c0 3.456-2.69 6-6 6s-6-2.544-6-6c0-3.476 2.69-6 6-6s6 2.524 6 6zm-2.629 0c0-2.164-1.563-3.636-3.371-3.636-1.807 0-3.371 1.482-3.371 3.636 0 2.134 1.563 3.636 3.371 3.636 1.807 0 3.371-1.492 3.371-3.636z" id="Shape" fill="#E94235"/><path d="M45 13c0 3.456-2.69 6-6 6-3.299 0-6-2.544-6-6 0-3.476 2.69-6 6-6s6 2.524 6 6zm-2.619 0c0-2.164-1.563-3.636-3.371-3.636-1.807 0-3.371 1.482-3.371 3.636 0 2.134 1.563 3.636 3.371 3.636 1.807.01 3.371-1.492 3.371-3.636z" id="Shape" fill="#FABB05"/><path d="M57 7.362v10.531c0 4.336-2.499 6.107-5.457 6.107-2.786 0-4.452-1.908-5.084-3.465l2.192-.93c.393.959 1.35 2.085 2.891 2.085 1.896 0 3.064-1.204 3.064-3.445v-.842h-.086c-.565.714-1.656 1.331-3.025 1.331-2.872 0-5.495-2.554-5.495-5.843 0-3.308 2.633-5.892 5.495-5.892 1.369 0 2.46.626 3.025 1.311h.086v-.949h2.393zm-2.221 5.539c0-2.065-1.35-3.582-3.064-3.582-1.742 0-3.198 1.507-3.198 3.582 0 2.045 1.455 3.533 3.198 3.533 1.714 0 3.064-1.488 3.064-3.533z" id="Shape" fill="#4285F4"/><path id="Shape" fill="#34A853" d="M63 1v18h-3v-18z"/><path d="M72.844 14.973l2.046 1.362c-.662.982-2.256 2.664-5.014 2.664-3.419 0-5.876-2.634-5.876-6 0-3.566 2.487-6 5.585-6 3.119 0 4.643 2.474 5.144 3.816l.271.681-8.032 3.326c.612 1.202 1.574 1.823 2.918 1.823s2.276-.671 2.958-1.673zm-6.307-2.164l5.375-2.224c-.301-.751-1.183-1.272-2.236-1.272-1.344 0-3.209 1.182-3.139 3.496z" fill="#E94235"/></g></g></svg>
